images/icon-task-list.svg

<svg width="42" height="42" viewBox="0 0 42 42" fill="none" xmlns="http://www.w3.org/2000/svg" xmlns:xlink="http://www.w3.org/1999/xlink">
<g clip-path="url(#clip0_686_3245)">
<mask id="mask0_686_3245" style="mask-type:luminance" maskUnits="userSpaceOnUse" x="0" y="0" width="42" height="42">
<path d="M42 0H0V42H42V0Z" fill="white"/>
</mask>
<g mask="url(#mask0_686_3245)">
<mask id="mask1_686_3245" style="mask-type:luminance" maskUnits="userSpaceOnUse" x="-3" y="-3" width="48" height="48">
<path d="M44.1 -2.09961H-2.10001V44.1004H44.1V-2.09961Z" fill="white"/>
</mask>
<g mask="url(#mask1_686_3245)">
<rect x="-2.23422" y="-2.28418" width="46.368" height="46.5696" fill="url(#pattern0_686_3245)"/>
</g>
</g>
<path d="M27.825 34.6496H14.175C11.9154 34.6496 10.08 32.8142 10.08 30.5546V14.1746C10.08 11.915 11.9154 10.0796 14.175 10.0796H15.7752C16.338 8.49201 17.8584 7.34961 19.635 7.34961H22.365C24.1458 7.34961 25.662 8.49201 26.2248 10.0796H27.825C30.0846 10.0796 31.92 11.915 31.92 14.1746V30.5546C31.92 32.8142 30.0846 34.6496 27.825 34.6496ZM14.175 12.8096C13.4232 12.8096 12.81 13.4228 12.81 14.1746V30.5546C12.81 31.3064 13.4232 31.9196 14.175 31.9196H27.825C28.5768 31.9196 29.19 31.3064 29.19 30.5546V14.1746C29.19 13.4228 28.5768 12.8096 27.825 12.8096H26.2248C25.662 14.3972 24.1416 15.5396 22.365 15.5396H19.635C17.8542 15.5396 16.338 14.3972 15.7752 12.8096H14.175ZM18.27 11.4446C18.27 12.1964 18.8832 12.8096 19.635 12.8096H22.365C23.1168 12.8096 23.73 12.1964 23.73 11.4446C23.73 10.6928 23.1168 10.0796 22.365 10.0796H19.635C18.8832 10.0796 18.27 10.6928 18.27 11.4446ZM19.635 27.8246C19.2738 27.8246 18.9252 27.6818 18.669 27.4256L15.939 24.6956C15.4056 24.1622 15.4056 23.297 15.939 22.7636C16.4724 22.2302 17.3376 22.2302 17.871 22.7636L19.635 24.5276L24.129 20.0336C24.6624 19.5002 25.5276 19.5002 26.061 20.0336C26.5944 20.567 26.5944 21.4322 26.061 21.9656L20.601 27.4256C20.3448 27.6818 19.9962 27.8246 19.635 27.8246Z" fill="white"/>
</g>
<defs>
<pattern id="pattern0_686_3245" patternContentUnits="objectBoundingBox" width="1" height="1">
</pattern>
<clipPath id="clip0_686_3245">
<rect width="42" height="42" rx="6" fill="white"/>
</clipPath>
</defs>
</svg>

<svg width="42" height="42" fill="none" xmlns="http://www.w3.org/2000/svg" role="img" aria-hidden="true" focusable="false"><g clip-path="url(#clip0_686_3245)"><mask id="a" style="mask-type:luminance" maskUnits="userSpaceOnUse" x="0" y="0" width="42" height="42"><path d="M42 0H0v42h42V0z" fill="#fff"/></mask><g mask="url(#a)"><mask id="b" style="mask-type:luminance" maskUnits="userSpaceOnUse" x="-3" y="-3" width="48" height="48"><path d="M44.1-2.1H-2.1v46.2h46.2V-2.1z" fill="#fff"/></mask><g mask="url(#b)"><path fill="url(#pattern0_686_3245)" d="M-2.234-2.284h46.368v46.57H-2.234z"/></g></g><path d="M27.825 34.65h-13.65a4.098 4.098 0 0 1-4.095-4.095v-16.38a4.098 4.098 0 0 1 4.095-4.095h1.6a4.105 4.105 0 0 1 3.86-2.73h2.73a4.1 4.1 0 0 1 3.86 2.73h1.6a4.098 4.098 0 0 1 4.095 4.095v16.38a4.098 4.098 0 0 1-4.095 4.095zm-13.65-21.84c-.752 0-1.365.613-1.365 1.365v16.38c0 .751.613 1.365 1.365 1.365h13.65c.752 0 1.365-.614 1.365-1.365v-16.38c0-.752-.613-1.365-1.365-1.365h-1.6a4.105 4.105 0 0 1-3.86 2.73h-2.73a4.1 4.1 0 0 1-3.86-2.73h-1.6zm4.095-1.365c0 .751.613 1.365 1.365 1.365h2.73c.752 0 1.365-.614 1.365-1.365 0-.752-.613-1.365-1.365-1.365h-2.73c-.752 0-1.365.613-1.365 1.365zm1.365 16.38c-.361 0-.71-.143-.966-.4l-2.73-2.73a1.366 1.366 0 0 1 1.932-1.931l1.764 1.764 4.494-4.494a1.366 1.366 0 0 1 1.932 1.932l-5.46 5.46a1.367 1.367 0 0 1-.966.399z" fill="#fff"/></g><defs><clipPath id="clip0_686_3245"><rect width="42" height="42" rx="6" fill="#fff"/></clipPath></defs></svg>
